svgs/sharp-regular/signal-bars-weak.svg

<svg xmlns="http://www.w3.org/2000/svg" viewBox="0 0 640 512"><!--! Font Awesome Pro 6.6.0 by @fontawesome - https://fontawesome.com License - https://fontawesome.com/license (Commercial License) Copyright 2024 Fonticons, Inc. --><path d="M96 432l0 32-32 0 0-32 32 0zM64 384l-48 0 0 48 0 32 0 48 48 0 32 0 48 0 0-48 0-32 0-48-48 0-32 0z"/></svg>

<svg xmlns="http://www.w3.org/2000/svg" viewBox="0 0 640 512"><!--! Font Awesome Pro 6.5.2 by @fontawesome - https://fontawesome.com License - https://fontawesome.com/license (Commercial License) Copyright 2024 Fonticons, Inc. --><path d="M96 432v32H64V432H96zM64 384H16v48 32 48H64 96h48V464 432 384H96 64z"/></svg>
